icons/linear-new-communication-phone-telephone.svg

<svg xmlns="http://www.w3.org/2000/svg" width="32px" height="32px" viewBox="0 0 32 32" version="1.1">
    <title>linear-new-communication-phone-telephone</title>
    <g id="linear-new-communication-phone-telephone" stroke-width="1" fill-rule="evenodd">
        <path d="M6.58384267,3.59918117 C6.86612173,2.95397187 7.70912259,2.79490903 8.20710678,3.29289322 L13.2071068,8.29289322 C13.511467,8.59725348 13.5869215,9.06222493 13.3944272,9.4472136 L12.217,11.802 L20.197,19.782 L22.5527864,18.6055728 C22.8992762,18.4323279 23.3105521,18.4761216 23.611221,18.7084914 L23.7071068,18.7928932 L28.7071068,23.7928932 C29.205091,24.2908774 29.0460281,25.1338783 28.4008188,25.4161573 L20.4008188,28.9161573 C20.0236844,29.0811536 19.5839724,28.9981859 19.2928932,28.7071068 L3.29289322,12.7071068 C3.00181405,12.4160276 2.91884635,11.9763156 3.08384267,11.5991812 L6.58384267,3.59918117 Z M7.828,5.743 L5.19,11.775 L20.224,26.809 L26.256,24.171 L22.802,20.717 L20.4472136,21.8944272 C20.1007238,22.0676721 19.6894479,22.0238784 19.388779,21.7915086 L19.2928932,21.7071068 L10.2928932,12.7071068 C9.98853296,12.4027465 9.91307848,11.9377751 10.1055728,11.5527864 L11.282,9.197 L7.828,5.743 Z" id="&#24418;&#29366;" fill-rule="nonzero" />
    </g>
</svg>

<svg xmlns="http://www.w3.org/2000/svg" viewBox="0 0 32 32"><path fill="currentColor" d="M6.584 3.6a1 1 0 0 1 1.623-.307l5 5a1 1 0 0 1 .187 1.154l-1.177 2.355 7.98 7.98 2.356-1.176a1 1 0 0 1 1.058.102l.096.085 5 5a1 1 0 0 1-.306 1.623l-8 3.5a1 1 0 0 1-1.108-.209l-16-16a1 1 0 0 1-.21-1.108zm1.244 2.143L5.19 11.775l15.034 15.034 6.032-2.638-3.454-3.454-2.355 1.177a1 1 0 0 1-1.058-.102l-.096-.085-9-9a1 1 0 0 1-.187-1.154l1.176-2.356z"/></svg>
